X:697
T:Mr Millstone's Inauguration
C:Dave Wiesler, 2012
L:1/8
M:4/4
R:Reel
N:4 beats to the bar.  Originally in B flat.
S:Colin Hume's website,  colinhume.com  - chords can also be printed below the stave.
%%MIDI gchord fcHcfcIc
Q:1/4=90
K:A
P:A
F | "A"EC GA "D"F3G | "F#m"AF cd "E"B3c | "Bm"d2 cB "F#m"AF FG | "D"AF EC "E"B,3F |
"A"EC GA "D"F3G | "/F#"AF de "E"B3c | "Bm"de fg "A/C#"aA "D"Bd | "A/E"cB "E"AG "A"A3 ||
P:B
g | "F#m"aA Aa gA Ag | "D/F#"f/g/a gf "F#m"c3f | "C#m"ec Bc "F#m"AF FG | "D"AG "Bm"Ac "E"B3g |
"A"aA Aa gA Ag | "D"f/g/a gf "A"e3c | "Bm"de fg "A/C#"aA "D"Bd | "A/E"cB "E7"AG "A"A3 |]

